assets/icons/24px/stroke/stack-horizontal-24px.svg

<svg width="24" height="24" viewBox="0 0 24 24" fill="none" xmlns="http://www.w3.org/2000/svg">
<path fill-rule="evenodd" clip-rule="evenodd" d="M14.6862 4.07128C16.1034 3.9222 17.4299 4.79067 17.8601 6.14922C17.946 6.42056 17.9742 6.70107 17.9872 6.97509C18 7.24485 18 7.57836 18 7.97606V7.99997H16C16 7.57209 15.9997 7.28644 15.9895 7.06985C15.9791 6.85213 15.9607 6.77627 15.9534 6.75296C15.81 6.3001 15.3678 6.01061 14.8954 6.06031C14.8711 6.06287 14.7942 6.07634 14.5905 6.15395C14.3879 6.23116 14.126 6.34516 13.7338 6.51629L11.0003 7.70909C10.1072 8.09879 9.51009 8.36081 9.06952 8.6122C8.64992 8.85162 8.4542 9.03749 8.32671 9.2322C8.19923 9.42692 8.10715 9.68065 8.05554 10.161C8.00134 10.6653 8 11.3174 8 12.2918V14.9993C8 15.8861 8.00111 16.4787 8.04356 16.9183C8.08581 17.3559 8.15864 17.4887 8.19275 17.5353C8.33587 17.7311 8.54525 17.8682 8.78191 17.9211C8.83831 17.9337 8.98909 17.9473 9.40708 17.811C9.82703 17.6741 10.3706 17.4381 11.1834 17.0834L11.9833 18.9165L11.9374 18.9365C11.1825 19.266 10.55 19.542 10.0271 19.7125C9.4917 19.8871 8.92675 20.0028 8.34572 19.8729C7.63575 19.7142 7.00762 19.303 6.57825 18.7158C6.22686 18.2351 6.10694 17.6711 6.05282 17.1105C5.99996 16.5631 5.99998 15.873 6 15.0493V12.2393C5.99998 11.3311 5.99996 10.571 6.06699 9.94728C6.13788 9.28755 6.29084 8.69054 6.65343 8.13671C7.01602 7.58288 7.50203 7.20392 8.07834 6.87508C8.62321 6.56419 9.31983 6.26023 10.1522 5.89702L12.9559 4.67363C13.3204 4.51457 13.626 4.38119 13.8784 4.28503C14.1347 4.18735 14.4031 4.10106 14.6862 4.07128Z" fill="white"/>
<path fill-rule="evenodd" clip-rule="evenodd" d="M11.9534 4.75296C11.81 4.3001 11.3678 4.01061 10.8954 4.06031C10.8711 4.06287 10.7942 4.07634 10.5905 4.15395C10.3879 4.23116 10.126 4.34516 9.73379 4.51629L7.00028 5.70909C6.10721 6.09879 5.51009 6.36081 5.06952 6.6122C4.64992 6.85162 4.4542 7.03749 4.32671 7.2322C4.19923 7.42692 4.10715 7.68065 4.05554 8.16098C4.00134 8.66532 4 9.3174 4 10.2918V13.0755C4 13.9156 4.00099 14.4771 4.03909 14.8949C4.0771 15.3118 4.14299 15.4405 4.17288 15.4845C4.32388 15.7067 4.55795 15.8588 4.82234 15.9065C4.87468 15.916 5.01906 15.9239 5.41542 15.7894C5.81271 15.6545 6.32624 15.4273 7.09386 15.0862L7.90614 16.9138L7.86303 16.9329C7.1498 17.25 6.55249 17.5154 6.05837 17.6832C5.55341 17.8546 5.0201 17.9746 4.46702 17.8747C3.67384 17.7315 2.97164 17.2752 2.51864 16.6085C2.20277 16.1437 2.09578 15.6076 2.04735 15.0765C1.99997 14.5569 1.99998 13.9032 2 13.1227L2 10.2393C1.99998 9.33105 1.99996 8.57101 2.06699 7.94728C2.13788 7.28755 2.29084 6.69054 2.65343 6.13671C3.01602 5.58288 3.50203 5.20392 4.07834 4.87508C4.62322 4.56419 5.31983 4.26023 6.15225 3.89702L8.95585 2.67363C9.32034 2.51458 9.626 2.38119 9.87836 2.28503C10.1347 2.18735 10.4031 2.10106 10.6862 2.07128C12.1034 1.9222 13.4299 2.79067 13.8601 4.14922C13.946 4.42056 13.9742 4.70107 13.9872 4.97509C14 5.24485 14 5.57836 14 5.97606V5.99997H12C12 5.57209 11.9997 5.28644 11.9895 5.06985C11.9791 4.85213 11.9607 4.77627 11.9534 4.75296Z" fill="white"/>
<path fill-rule="evenodd" clip-rule="evenodd" d="M18.5996 8.20953C18.0818 8.36624 17.4075 8.65865 16.3999 9.09831L15.0003 9.70907C14.1072 10.0988 13.5101 10.3608 13.0695 10.6122C12.6499 10.8516 12.4542 11.0375 12.3267 11.2322C12.1992 11.4269 12.1072 11.6806 12.0555 12.161C12.0013 12.6653 12 13.3174 12 14.2918V16.1818C12 17.4532 12.0022 18.3038 12.0849 18.917C12.1661 19.518 12.2991 19.6651 12.3757 19.7263C12.425 19.7657 12.4779 19.8003 12.5337 19.8297C12.6205 19.8755 12.8085 19.9386 13.3918 19.7725C13.9869 19.6032 14.7673 19.265 15.9327 18.7565L16.9997 18.2908C17.8928 17.9011 18.4899 17.6391 18.9305 17.3877C19.3501 17.1483 19.5458 16.9624 19.6733 16.7677C19.8008 16.573 19.8929 16.3193 19.9445 15.8389C19.9987 15.3346 20 14.6825 20 13.7081V11.4553C20 10.356 19.9983 9.62102 19.9348 9.0837C19.8721 8.5529 19.7667 8.408 19.7118 8.35237C19.612 8.25124 19.4918 8.17255 19.3592 8.12152C19.2862 8.09345 19.1112 8.05473 18.5996 8.20953ZM18.0204 6.29526C18.6844 6.09433 19.3844 5.98827 20.0775 6.25496C20.4752 6.40804 20.8358 6.64413 21.1352 6.9475C21.6568 7.47601 21.8396 8.16005 21.921 8.84901C22.0001 9.51787 22 10.3723 22 11.3929L22 13.7607C22 14.6689 22 15.4289 21.933 16.0526C21.8621 16.7124 21.7092 17.3094 21.3466 17.8632C20.984 18.417 20.498 18.796 19.9217 19.1248C19.3768 19.4357 18.6802 19.7397 17.8478 20.1029L16.6662 20.6185C15.5847 21.0905 14.6799 21.4853 13.9393 21.6961C13.1718 21.9146 12.3653 22.0018 11.6011 21.599C11.4337 21.5107 11.2749 21.4068 11.1271 21.2886C10.4523 20.7494 10.2096 19.9753 10.1029 19.1845C9.99992 18.4214 9.99996 17.4342 10 16.2542L10 14.2392C9.99998 13.331 9.99996 12.571 10.067 11.9473C10.1379 11.2875 10.2908 10.6905 10.6534 10.1367C11.016 9.58286 11.502 9.2039 12.0783 8.87506C12.6232 8.56417 13.3198 8.26021 14.1523 7.897L15.6572 7.24029C16.5926 6.8321 17.3757 6.49033 18.0204 6.29526Z" fill="white"/>
</svg>

<svg width="24" height="24" fill="none" xmlns="http://www.w3.org/2000/svg"><path fill-rule="evenodd" clip-rule="evenodd" d="M14.686 4.071A3 3 0 0 1 17.86 6.15c.086.272.114.552.127.826.013.27.013.603.013 1.001V8h-2c0-.428 0-.714-.01-.93a1.426 1.426 0 0 0-.037-.317 1 1 0 0 0-1.058-.693 1.415 1.415 0 0 0-.304.094 22.15 22.15 0 0 0-.857.362L11 7.71c-.893.39-1.49.652-1.93.903-.42.24-.616.425-.743.62-.128.195-.22.449-.271.929C8 10.665 8 11.317 8 12.291V15c0 .887.001 1.48.044 1.92.042.437.115.57.149.616a1 1 0 0 0 .589.386c.056.013.207.026.625-.11.42-.137.964-.373 1.776-.728l.8 1.834-.046.02c-.755.329-1.387.605-1.91.775-.535.175-1.1.29-1.681.16a3 3 0 0 1-1.768-1.156c-.351-.48-.471-1.045-.525-1.606C6 16.563 6 15.873 6 15.05v-2.81c0-.909 0-1.669.067-2.293.07-.66.224-1.256.586-1.81.363-.554.849-.933 1.425-1.262.545-.31 1.242-.615 2.074-.978l2.804-1.223c.364-.16.67-.293.922-.389.257-.098.525-.184.808-.214z" fill="#fff"/><path fill-rule="evenodd" clip-rule="evenodd" d="M11.953 4.753a1 1 0 0 0-1.058-.693 1.415 1.415 0 0 0-.304.094c-.203.077-.465.191-.857.362L7 5.71c-.893.39-1.49.652-1.93.903-.42.24-.616.425-.743.62-.128.195-.22.449-.271.929C4 8.665 4 9.317 4 10.291v2.784c0 .84.001 1.402.04 1.82.037.417.103.546.133.59a1 1 0 0 0 .65.421c.052.01.196.018.592-.117.398-.134.911-.362 1.679-.703l.812 1.828-.043.019c-.713.317-1.31.582-1.805.75-.505.172-1.038.292-1.591.192a3 3 0 0 1-1.948-1.267c-.316-.464-.423-1-.472-1.532C2 14.556 2 13.903 2 13.123v-2.884c0-.908 0-1.668.067-2.292.07-.66.224-1.256.586-1.81.363-.554.849-.933 1.425-1.262.545-.31 1.242-.615 2.074-.978l2.804-1.223c.364-.16.67-.293.922-.389.257-.098.525-.184.808-.214A3 3 0 0 1 13.86 4.15c.086.272.114.552.127.826.013.27.013.603.013 1.001V6h-2c0-.428 0-.714-.01-.93a1.426 1.426 0 0 0-.037-.317z" fill="#fff"/><path fill-rule="evenodd" clip-rule="evenodd" d="M18.6 8.21c-.518.156-1.193.449-2.2.888L15 9.71c-.893.39-1.49.652-1.93.903-.42.24-.616.425-.743.62-.128.195-.22.449-.271.929-.055.504-.056 1.156-.056 2.13v1.89c0 1.272.002 2.123.085 2.736.081.601.214.748.29.81.05.039.103.073.159.103.086.046.274.109.858-.057.595-.17 1.375-.508 2.54-1.017L17 18.291c.893-.39 1.49-.652 1.93-.903.42-.24.616-.426.743-.62.128-.195.22-.449.272-.93.054-.503.055-1.155.055-2.13v-2.253c0-1.099-.002-1.834-.065-2.371-.063-.531-.168-.676-.223-.732a1 1 0 0 0-.353-.23c-.073-.029-.248-.067-.76.088zm-.58-1.915c.664-.2 1.364-.307 2.058-.04a3 3 0 0 1 1.057.692c.522.529.705 1.213.786 1.902.08.669.079 1.523.079 2.544v2.368c0 .908 0 1.668-.067 2.292-.07.66-.224 1.256-.586 1.81-.363.554-.849.933-1.425 1.262-.545.31-1.242.615-2.074.978l-1.182.515c-1.081.473-1.986.867-2.727 1.078-.767.219-1.574.306-2.338-.097a3 3 0 0 1-.474-.31c-.675-.54-.917-1.314-1.024-2.105-.103-.763-.103-1.75-.103-2.93V14.24c0-.908 0-1.668.067-2.292.07-.66.224-1.256.586-1.81.363-.554.849-.933 1.425-1.262.545-.31 1.242-.615 2.074-.978l1.505-.657c.936-.408 1.719-.75 2.363-.945z" fill="#fff"/></svg>
